src/assets/svg/bx-bar-chart-alt.svg

<svg xmlns="http://www.w3.org/2000/svg" width="16" height="18" viewBox="0 0 16 18">
  <path id="bx-bar-chart-alt" d="M13,6h2V17H13Zm4-3h2V17H17ZM9,9h2v8H9ZM4,19H20v2H4Zm1-7H7v5H5Z" transform="translate(-4 -3)" fill="#fff" opacity="0.8"/>
</svg>

<svg xmlns="http://www.w3.org/2000/svg" width="24" height="24" viewBox="0 0 24 24"><path d="M13 6H15V17H13zM17 3H19V17H17zM9 9H11V17H9zM4 19H20V21H4zM5 12H7V17H5z"/></svg>
